**kern
*staff1
!!pagebreak:original
*I"P1
=1-
*clefG2
*k[]
*M3/8
8r
8e/L
8f/J
=2
8.g/L
16f/k
8e/J
=3
8d/L
16e/L
16f/
16e/
16f/JJ
=4
8.g/L
16f/k
[8e/J
=5
16e/LL]
16d/
16e/
16f/
16e/
16f/JJ
=6
8.d/L
16e/k
8d/J
=7
16d/LL
16e/J
8d/
16B-/L
32c/L
32B-/JJJ
=8
4.A/
*-
